X: 15617
T: Goat's, The
R: polka
M: 2/4
K: Bminor
f2 f>e|dB FB|dB B^A|Bc de|
f/g/f/e/ g/f/e|dB F>B|dB B^A|B2:|
B>^A Bc|dA de|fg/f/ ed|F/G/A Bc|
B/c/B/^A/ Bc|dA d>e|1 fg/f/ ed|F2-:|2 f/g/f/e/ d/c/B/^A/|B2||

